X:23
T:Shandon Bells
M:6/8
R:jig
C:Traditional
K:D
AF/D/D DFA | ded cBA | BGE E2G | (B/c/B)A Bcd |
AF/D/D DFA | ded cBA | Bcd ecA |[1 ded d2B :|[2 ded d2g |
|: (f/g/f)d dcd | fa/a/a afd | cA/A/A eA/A/A | cA/A/A efg |
fd/d/d dcd | fa/a/a afd | Bcd ecA |[1 ded d2g :|[2 ded d2B |]

